T: Berwick Billy
M: 3/2
L: 1/8
K: Amix
|:eA Ae f/e/d/c/|eA Ae ca|eA Ae f/e/d/c/|dB Bc df:|a>g aA c/d/e/c/|a>g aA ce|a>g aA c/d/e/c/|fa aB df:||!ee f/e/d/c/ f/e/d/c/ | ee f/e/d/c/ ea | ee f/e/d/c/ f/e/d/c/ | dB Bc df:|a>g aA c/d/e/c/|a>g aA ce|a>g aa a/g/f/e/ | fa aB df:||!
